svg/file/to_do_line.svg

<?xml version="1.0" encoding="UTF-8"?>
<svg width="24px" height="24px" viewBox="0 0 24 24" version="1.1" xmlns="http://www.w3.org/2000/svg" xmlns:xlink="http://www.w3.org/1999/xlink">
    <title>to_do_line</title>
    <g id="Icon" stroke="none" stroke-width="1" fill="none" fill-rule="evenodd">
        <g id="File" transform="translate(-816.000000, -384.000000)">
            <g id="to_do_line" transform="translate(816.000000, 384.000000)">
                <path d="M24,0 L24,24 L0,24 L0,0 L24,0 Z M12.5935,23.2578 L12.5819,23.2595 L12.5109,23.295 L12.4919,23.2987 L12.4767,23.295 L12.4057,23.2595 C12.3958,23.2564 12.387,23.259 12.3821,23.2649 L12.378,23.2758 L12.3609,23.7031 L12.3659,23.7235 L12.3769,23.7357 L12.4805,23.8097 L12.4953,23.8136 L12.5071,23.8097 L12.6107,23.7357 L12.6233,23.7197 L12.6267,23.7031 L12.6096,23.2758 C12.6076,23.2657 12.601,23.2593 12.5935,23.2578 Z M12.8584,23.1453 L12.8445,23.1473 L12.6598,23.2397 L12.6499,23.2499 L12.6472,23.2611 L12.6651,23.6906 L12.6699,23.7034 L12.6784,23.7105 L12.8793,23.8032 C12.8914,23.8069 12.9022,23.803 12.9078,23.7952 L12.9118,23.7812 L12.8777,23.1665 C12.8753,23.1546 12.8674,23.147 12.8584,23.1453 Z M12.143,23.1473 C12.1332,23.1424 12.1222,23.1453 12.1156,23.1526 L12.1099,23.1665 L12.0758,23.7812 C12.0751,23.7927 12.0828,23.8019 12.0926,23.8046 L12.1083,23.8032 L12.3092,23.7105 L12.3186,23.7024 L12.3225,23.6906 L12.3404,23.2611 L12.3372,23.2485 L12.3278,23.2397 L12.143,23.1473 Z" id="MingCute" fill-rule="nonzero"></path>
                <path d="M4,4 C4,2.89543 4.89543,2 6,2 L18,2 C19.1046,2 20,2.89543 20,4 L20,10 L18,10 L18,4 L6,4 L6,20 L11,20 L11,22 L6,22 C4.89543,22 4,21.1046 4,20 L4,4 Z M8,8 C8,7.44772 8.44772,7 9,7 L15,7 C15.5523,7 16,7.44772 16,8 C16,8.55228 15.5523,9 15,9 L9,9 C8.44772,9 8,8.55228 8,8 Z M8,12 C8,11.4477 8.44772,11 9,11 L10,11 C10.5523,11 11,11.4477 11,12 C11,12.5523 10.5523,13 10,13 L9,13 C8.44772,13 8,12.5523 8,12 Z M17,14 C15.3431,14 14,15.3431 14,17 C14,18.6569 15.3431,20 17,20 C18.6569,20 20,18.6569 20,17 C20,15.3431 18.6569,14 17,14 Z M12,17 C12,14.2386 14.2386,12 17,12 C19.7614,12 22,14.2386 22,17 C22,19.7614 19.7614,22 17,22 C14.2386,22 12,19.7614 12,17 Z M17,14.5 C17.5523,14.5 18,14.9477 18,15.5 L18,16 C18.5523,16 19,16.4477 19,17 C19,17.5523 18.5523,18 18,18 L17,18 C16.4477,18 16,17.5523 16,17 L16,15.5 C16,14.9477 16.4477,14.5 17,14.5 Z" id="形状" fill="#09244B"></path>
            </g>
        </g>
    </g>
</svg>

<svg xmlns="http://www.w3.org/2000/svg" width="24" height="24"><g fill="none" fill-rule="evenodd"><path d="M24 0v24H0V0h24ZM12.594 23.258l-.012.002-.071.035-.02.004-.014-.004-.071-.036c-.01-.003-.019 0-.024.006l-.004.01-.017.428.005.02.01.013.104.074.015.004.012-.004.104-.074.012-.016.004-.017-.017-.427c-.002-.01-.009-.017-.016-.018Zm.264-.113-.014.002-.184.093-.01.01-.003.011.018.43.005.012.008.008.201.092c.012.004.023 0 .029-.008l.004-.014-.034-.614c-.003-.012-.01-.02-.02-.022Zm-.715.002a.023.023 0 0 0-.027.006l-.006.014-.034.614c0 .012.007.02.017.024l.015-.002.201-.093.01-.008.003-.011.018-.43-.003-.012-.01-.01-.184-.092Z"/><path fill="#09244B" d="M4 4a2 2 0 0 1 2-2h12a2 2 0 0 1 2 2v6h-2V4H6v16h5v2H6a2 2 0 0 1-2-2V4Zm4 4a1 1 0 0 1 1-1h6a1 1 0 1 1 0 2H9a1 1 0 0 1-1-1Zm0 4a1 1 0 0 1 1-1h1a1 1 0 1 1 0 2H9a1 1 0 0 1-1-1Zm9 2a3 3 0 1 0 0 6 3 3 0 0 0 0-6Zm-5 3a5 5 0 1 1 10 0 5 5 0 0 1-10 0Zm5-2.5a1 1 0 0 1 1 1v.5a1 1 0 1 1 0 2h-1a1 1 0 0 1-1-1v-1.5a1 1 0 0 1 1-1Z"/></g></svg>
